X: 8899
T: Curlew Hills, The
R: barndance
M: 4/4
K: Gmajor
|:"G" GA Bc "D" dg fa|"G" g2 B2d3d|"Am" ce AB "D"c2 BA|"G"Bd GA "D"BD BA|
"G"GA Bc "D"dg fa|"G"g2B2"Em"d3d|"Am"ce AB "D"cA FA|1 "G"G2"D"B2"G"G2DEF:|2 "G"G2"D"B2"G"G2 Bc|
"G"d2b2"D"c2a2|"G"Bg gf "Em"gd BG|"D"FG AB cA FA|"G"GA Bc "D"d2 Bc^c|
"G"d2b2"D"c2a2|"G"Bg gf "Em"gd BG|"D"FG AB cA FA|1 "G"G2 "D"B2 "G"G2 Bc:|2 "G"G2 "D"B2 "G"G2 DEF:|

